domfk/img/social/viber-2.svg

<svg width="27" height="27" viewBox="0 0 27 27" fill="none" xmlns="http://www.w3.org/2000/svg">
<g clip-path="url(#clip0_739_135)">
<circle cx="13" cy="14" r="13" fill="#7C509A"/>
<path d="M17.0651 7.85484C14.5876 7.38172 12.0148 7.38172 9.5373 7.85484C8.44149 8.09141 7.05982 9.41616 6.8216 10.457C6.3928 12.4915 6.3928 14.5732 6.8216 16.6077C7.10746 17.6485 8.48913 18.9733 9.5373 19.2098C9.58495 19.2098 9.63259 19.2572 9.63259 19.3045V22.2852C9.63259 22.4271 9.82317 22.5217 9.91846 22.3798L11.3478 20.9131C11.3478 20.9131 12.4912 19.7303 12.6818 19.541C12.6818 19.541 12.7295 19.4937 12.7771 19.4937C14.2064 19.541 15.6834 19.3991 17.1127 19.1625C18.2085 18.926 19.5902 17.6012 19.8284 16.5603C20.2572 14.5259 20.2572 12.4442 19.8284 10.4097C19.5425 9.41616 18.1609 8.09141 17.0651 7.85484ZM17.1127 16.7496C16.8745 17.2227 16.5886 17.6012 16.1122 17.8378C15.9692 17.8851 15.8263 17.9324 15.6834 17.9797C15.4928 17.9324 15.3499 17.8851 15.2069 17.8378C13.6823 17.2227 12.253 16.3711 11.1096 15.141C10.4902 14.4313 9.9661 13.627 9.5373 12.7753C9.34673 12.3495 9.15615 11.971 9.01322 11.5452C8.87029 11.1667 9.10851 10.7882 9.34673 10.5043C9.58495 10.2205 9.87081 10.0312 10.2043 9.88928C10.4425 9.74734 10.6808 9.84197 10.8713 10.0312C11.2525 10.5043 11.6336 10.9775 11.9195 11.4979C12.1101 11.8291 12.0624 12.2076 11.7289 12.4442C11.6336 12.4915 11.586 12.5388 11.4907 12.6334C11.4431 12.6807 11.3478 12.728 11.3001 12.8227C11.2048 12.9646 11.2048 13.1065 11.2525 13.2485C11.6336 14.3367 12.3483 15.1883 13.4441 15.6614C13.6347 15.756 13.7776 15.8033 14.0158 15.8033C14.3493 15.756 14.4923 15.3775 14.7305 15.1883C14.9687 14.999 15.2546 14.999 15.5404 15.141C15.7787 15.2829 16.0169 15.4722 16.3027 15.6614C16.541 15.8507 16.7792 15.9926 17.0174 16.1818C17.1603 16.2765 17.208 16.513 17.1127 16.7496ZM15.1116 13.2012C15.0164 13.2012 15.064 13.2012 15.1116 13.2012C14.9211 13.2012 14.8734 13.1065 14.8258 12.9646C14.8258 12.87 14.8258 12.728 14.7781 12.6334C14.7305 12.4442 14.6352 12.2549 14.4446 12.113C14.3493 12.0657 14.2541 12.0183 14.1588 11.971C14.0158 11.9237 13.9205 11.9237 13.7776 11.9237C13.6347 11.8764 13.587 11.7818 13.587 11.6398C13.587 11.5452 13.73 11.4506 13.8253 11.4506C14.5876 11.4979 15.1593 11.9237 15.2546 12.8227C15.2546 12.87 15.2546 12.9646 15.2546 13.0119C15.2546 13.1065 15.2069 13.2012 15.1116 13.2012ZM14.6352 11.1194C14.397 11.0248 14.1588 10.9302 13.8729 10.8828C13.7776 10.8828 13.6347 10.8355 13.5394 10.8355C13.3965 10.8355 13.3012 10.7409 13.3488 10.599C13.3488 10.457 13.4441 10.3624 13.587 10.4097C14.0635 10.457 14.4923 10.5517 14.9211 10.7409C15.7787 11.1667 16.2551 11.8764 16.398 12.8227C16.398 12.87 16.398 12.9173 16.398 12.9646C16.398 13.0592 16.398 13.1538 16.398 13.2958C16.398 13.3431 16.398 13.3904 16.398 13.4377C16.3504 13.627 16.0169 13.6743 15.9692 13.4377C15.9692 13.3904 15.9216 13.2958 15.9216 13.2485C15.9216 12.8227 15.8263 12.3968 15.6357 12.0183C15.3499 11.5925 15.0164 11.3087 14.6352 11.1194ZM17.208 13.9582C17.0651 13.9582 16.9698 13.8162 16.9698 13.6743C16.9698 13.3904 16.9221 13.1065 16.8745 12.8227C16.6839 11.3087 15.4452 10.0785 13.9682 9.84197C13.73 9.79466 13.4918 9.79466 13.3012 9.74734C13.1582 9.74734 12.9677 9.74734 12.92 9.55809C12.8724 9.41616 13.0153 9.27422 13.1582 9.27422C13.2059 9.27422 13.2535 9.27422 13.2535 9.27422C15.2069 9.32153 13.3488 9.27422 13.2535 9.27422C15.2546 9.32153 16.9221 10.6463 17.2556 12.6334C17.3033 12.9646 17.3509 13.2958 17.3509 13.6743C17.4462 13.8162 17.3509 13.9582 17.208 13.9582Z" fill="white"/>
</g>
<defs>
<clipPath id="clip0_739_135">
<rect width="26" height="26" fill="white" transform="translate(0.198486 0.970703)"/>
</clipPath>
</defs>
</svg>

<svg width="27" height="27" fill="none" xmlns="http://www.w3.org/2000/svg"><g clip-path="url(#clip0_739_135)"><circle cx="13" cy="14" r="13" fill="#7C509A"/><path d="M17.065 7.855a20.14 20.14 0 00-7.528 0c-1.096.236-2.477 1.561-2.715 2.602a14.865 14.865 0 000 6.15c.285 1.041 1.667 2.366 2.715 2.603.048 0 .096.047.096.095v2.98c0 .142.19.237.285.095l1.43-1.467s1.143-1.183 1.334-1.372c0 0 .047-.047.095-.047 1.43.047 2.906-.095 4.336-.331 1.096-.237 2.477-1.562 2.715-2.603a14.865 14.865 0 000-6.15c-.285-.994-1.667-2.319-2.763-2.555zm.048 8.895c-.238.473-.524.851-1 1.088l-.43.142c-.19-.048-.333-.095-.476-.142-1.525-.615-2.954-1.467-4.097-2.697a11.377 11.377 0 01-1.573-2.366c-.19-.425-.38-.804-.524-1.23-.143-.378.096-.757.334-1.04.238-.285.524-.474.857-.616.239-.142.477-.047.667.142.381.473.763.946 1.048 1.467.191.331.143.71-.19.946a.827.827 0 00-.238.19c-.048.047-.143.094-.19.189a.457.457 0 00-.049.425c.382 1.089 1.096 1.94 2.192 2.413.19.095.334.142.572.142.333-.047.476-.426.714-.615.239-.189.525-.189.81-.047.239.142.477.331.763.52.238.19.476.332.714.52.143.095.191.332.096.569zm-2.001-3.55c-.096 0-.048 0 0 0-.19 0-.239-.095-.286-.236 0-.095 0-.237-.048-.332a.898.898 0 00-.333-.52l-.286-.142c-.143-.047-.239-.047-.381-.047-.143-.048-.191-.142-.191-.284 0-.095.143-.19.238-.19.763.048 1.334.474 1.43 1.373v.189c0 .095-.048.19-.143.19zm-.477-2.082c-.238-.094-.476-.189-.762-.236-.095 0-.238-.047-.334-.047-.143 0-.238-.095-.19-.237 0-.142.095-.237.238-.19.476.048.905.143 1.334.332.858.426 1.334 1.135 1.477 2.082v.615c-.048.189-.381.236-.429 0 0-.048-.047-.142-.047-.19 0-.425-.096-.851-.286-1.23a2.555 2.555 0 00-1-.899zm2.573 2.84c-.143 0-.238-.143-.238-.285 0-.284-.048-.567-.095-.851-.191-1.514-1.43-2.745-2.907-2.981-.238-.047-.476-.047-.667-.095-.143 0-.333 0-.381-.189-.048-.142.095-.284.238-.284h.096c1.953.048.095 0 0 0 2 .048 3.668 1.372 4.002 3.36.047.33.095.662.095 1.04.095.142 0 .284-.143.284z" fill="#fff"/></g><defs><clipPath id="clip0_739_135"><path fill="#fff" transform="translate(.198 .97)" d="M0 0h26v26H0z"/></clipPath></defs></svg>
